<?xml version="1.0" encoding="UTF-8"?>
<map version="1.10" tiledversion="1.11.2" orientation="orthogonal" renderorder="right-down" width="25" height="14" tilewidth="64" tileheight="64" infinite="0" nextlayerid="4" nextobjectid="2">
 <tileset firstgid="1" name="Tilemap_Flat" tilewidth="64" tileheight="64" tilecount="40" columns="10">
  <image source="Tilemap_Flat.png" width="640" height="256"/>
 </tileset>
 <tileset firstgid="41" name="Tree" tilewidth="64" tileheight="64" tilecount="108" columns="12">
  <image source="Tree.png" width="768" height="576"/>
 </tileset>
 <tileset firstgid="149" name="Tower_Blue" tilewidth="64" tileheight="64" tilecount="8" columns="2">
  <image source="Tower_Blue.png" width="128" height="256"/>
 </tileset>
 <layer id="1" name="Tile Layer 1" width="25" height="14">
  <data>
   <tile gid="1"/>
   <tile gid="2"/>
   <tile gid="2"/>
   <tile gid="2"/>
   <tile gid="2"/>
   <tile gid="2"/>
   <tile gid="2"/>
   <tile gid="2"/>
   <tile gid="2"/>
   <tile gid="2"/>
   <tile gid="2"/>
   <tile gid="2"/>
   <tile gid="2"/>
   <tile gid="2"/>
   <tile gid="2"/>
   <tile gid="2"/>
   <tile gid="2"/>
   <tile gid="2"/>
   <tile gid="2"/>
   <tile gid="2"/>
   <tile gid="2"/>
   <tile gid="2"/>
   <tile gid="2"/>
   <tile gid="2"/>
   <tile gid="3"/>
   <tile gid="11"/>
   <tile gid="12"/>
   <tile gid="12"/>
   <tile gid="12"/>
   <tile gid="12"/>
   <tile gid="12"/>
   <tile gid="12"/>
   <tile gid="12"/>
   <tile gid="12"/>
   <tile gid="12"/>
   <tile gid="12"/>
   <tile gid="12"/>
   <tile gid="12"/>
   <tile gid="12"/>
   <tile gid="12"/>
   <tile gid="12"/>
   <tile gid="12"/>
   <tile gid="12"/>
   <tile gid="12"/>
   <tile gid="12"/>
   <tile gid="12"/>
   <tile gid="12"/>
   <tile gid="12"/>
   <tile gid="12"/>
   <tile gid="13"/>
   <tile gid="11"/>
   <tile gid="12"/>
   <tile gid="12"/>
   <tile gid="12"/>
   <tile gid="12"/>
   <tile gid="12"/>
   <tile gid="12"/>
   <tile gid="12"/>
   <tile gid="12"/>
   <tile gid="12"/>
   <tile gid="12"/>
   <tile gid="12"/>
   <tile gid="12"/>
   <tile gid="12"/>
   <tile gid="12"/>
   <tile gid="12"/>
   <tile gid="12"/>
   <tile gid="12"/>
   <tile gid="12"/>
   <tile gid="12"/>
   <tile gid="12"/>
   <tile gid="12"/>
   <tile gid="12"/>
   <tile gid="12"/>
   <tile gid="13"/>
   <tile gid="11"/>
   <tile gid="12"/>
   <tile gid="12"/>
   <tile gid="12"/>
   <tile gid="12"/>
   <tile gid="12"/>
   <tile gid="12"/>
   <tile gid="12"/>
   <tile gid="12"/>
   <tile gid="12"/>
   <tile gid="12"/>
   <tile gid="12"/>
   <tile gid="12"/>
   <tile gid="12"/>
   <tile gid="12"/>
   <tile gid="12"/>
   <tile gid="12"/>
   <tile gid="12"/>
   <tile gid="12"/>
   <tile gid="12"/>
   <tile gid="12"/>
   <tile gid="12"/>
   <tile gid="12"/>
   <tile gid="12"/>
   <tile gid="13"/>
   <tile gid="11"/>
   <tile gid="12"/>
   <tile gid="12"/>
   <tile gid="12"/>
   <tile gid="12"/>
   <tile gid="12"/>
   <tile gid="12"/>
   <tile gid="12"/>
   <tile gid="12"/>
   <tile gid="12"/>
   <tile gid="12"/>
   <tile gid="12"/>
   <tile gid="12"/>
   <tile gid="12"/>
   <tile gid="12"/>
   <tile gid="12"/>
   <tile gid="12"/>
   <tile gid="12"/>
   <tile gid="12"/>
   <tile gid="12"/>
   <tile gid="12"/>
   <tile gid="12"/>
   <tile gid="12"/>
   <tile gid="12"/>
   <tile gid="13"/>
   <tile gid="11"/>
   <tile gid="12"/>
   <tile gid="12"/>
   <tile gid="12"/>
   <tile gid="12"/>
   <tile gid="12"/>
   <tile gid="12"/>
   <tile gid="12"/>
   <tile gid="12"/>
   <tile gid="12"/>
   <tile gid="12"/>
   <tile gid="12"/>
   <tile gid="12"/>
   <tile gid="12"/>
   <tile gid="12"/>
   <tile gid="12"/>
   <tile gid="12"/>
   <tile gid="12"/>
   <tile gid="12"/>
   <tile gid="12"/>
   <tile gid="12"/>
   <tile gid="12"/>
   <tile gid="12"/>
   <tile gid="12"/>
   <tile gid="13"/>
   <tile gid="11"/>
   <tile gid="12"/>
   <tile gid="12"/>
   <tile gid="12"/>
   <tile gid="12"/>
   <tile gid="12"/>
   <tile gid="12"/>
   <tile gid="12"/>
   <tile gid="12"/>
   <tile gid="12"/>
   <tile gid="12"/>
   <tile gid="12"/>
   <tile gid="12"/>
   <tile gid="12"/>
   <tile gid="12"/>
   <tile gid="12"/>
   <tile gid="12"/>
   <tile gid="12"/>
   <tile gid="12"/>
   <tile gid="12"/>
   <tile gid="12"/>
   <tile gid="12"/>
   <tile gid="12"/>
   <tile gid="12"/>
   <tile gid="13"/>
   <tile gid="11"/>
   <tile gid="12"/>
   <tile gid="12"/>
   <tile gid="12"/>
   <tile gid="12"/>
   <tile gid="12"/>
   <tile gid="12"/>
   <tile gid="12"/>
   <tile gid="12"/>
   <tile gid="12"/>
   <tile gid="12"/>
   <tile gid="12"/>
   <tile gid="12"/>
   <tile gid="12"/>
   <tile gid="12"/>
   <tile gid="12"/>
   <tile gid="12"/>
   <tile gid="12"/>
   <tile gid="12"/>
   <tile gid="12"/>
   <tile gid="12"/>
   <tile gid="12"/>
   <tile gid="12"/>
   <tile gid="12"/>
   <tile gid="13"/>
   <tile gid="11"/>
   <tile gid="12"/>
   <tile gid="12"/>
   <tile gid="12"/>
   <tile gid="12"/>
   <tile gid="12"/>
   <tile gid="12"/>
   <tile gid="12"/>
   <tile gid="12"/>
   <tile gid="12"/>
   <tile gid="12"/>
   <tile gid="12"/>
   <tile gid="12"/>
   <tile gid="12"/>
   <tile gid="12"/>
   <tile gid="12"/>
   <tile gid="12"/>
   <tile gid="12"/>
   <tile gid="12"/>
   <tile gid="12"/>
   <tile gid="12"/>
   <tile gid="12"/>
   <tile gid="12"/>
   <tile gid="12"/>
   <tile gid="13"/>
   <tile gid="11"/>
   <tile gid="12"/>
   <tile gid="12"/>
   <tile gid="12"/>
   <tile gid="12"/>
   <tile gid="12"/>
   <tile gid="12"/>
   <tile gid="12"/>
   <tile gid="12"/>
   <tile gid="12"/>
   <tile gid="12"/>
   <tile gid="12"/>
   <tile gid="12"/>
   <tile gid="12"/>
   <tile gid="12"/>
   <tile gid="12"/>
   <tile gid="12"/>
   <tile gid="12"/>
   <tile gid="12"/>
   <tile gid="12"/>
   <tile gid="12"/>
   <tile gid="12"/>
   <tile gid="12"/>
   <tile gid="12"/>
   <tile gid="13"/>
   <tile gid="11"/>
   <tile gid="12"/>
   <tile gid="12"/>
   <tile gid="12"/>
   <tile gid="12"/>
   <tile gid="12"/>
   <tile gid="12"/>
   <tile gid="12"/>
   <tile gid="12"/>
   <tile gid="12"/>
   <tile gid="12"/>
   <tile gid="12"/>
   <tile gid="12"/>
   <tile gid="12"/>
   <tile gid="12"/>
   <tile gid="12"/>
   <tile gid="12"/>
   <tile gid="12"/>
   <tile gid="12"/>
   <tile gid="12"/>
   <tile gid="12"/>
   <tile gid="12"/>
   <tile gid="12"/>
   <tile gid="12"/>
   <tile gid="13"/>
   <tile gid="11"/>
   <tile gid="12"/>
   <tile gid="12"/>
   <tile gid="12"/>
   <tile gid="12"/>
   <tile gid="12"/>
   <tile gid="12"/>
   <tile gid="12"/>
   <tile gid="12"/>
   <tile gid="12"/>
   <tile gid="12"/>
   <tile gid="12"/>
   <tile gid="12"/>
   <tile gid="12"/>
   <tile gid="12"/>
   <tile gid="12"/>
   <tile gid="12"/>
   <tile gid="12"/>
   <tile gid="12"/>
   <tile gid="12"/>
   <tile gid="12"/>
   <tile gid="12"/>
   <tile gid="12"/>
   <tile gid="12"/>
   <tile gid="13"/>
   <tile gid="11"/>
   <tile gid="12"/>
   <tile gid="12"/>
   <tile gid="12"/>
   <tile gid="12"/>
   <tile gid="12"/>
   <tile gid="12"/>
   <tile gid="12"/>
   <tile gid="12"/>
   <tile gid="12"/>
   <tile gid="12"/>
   <tile gid="12"/>
   <tile gid="12"/>
   <tile gid="12"/>
   <tile gid="12"/>
   <tile gid="12"/>
   <tile gid="12"/>
   <tile gid="12"/>
   <tile gid="12"/>
   <tile gid="12"/>
   <tile gid="12"/>
   <tile gid="12"/>
   <tile gid="12"/>
   <tile gid="12"/>
   <tile gid="13"/>
   <tile gid="21"/>
   <tile gid="22"/>
   <tile gid="22"/>
   <tile gid="22"/>
   <tile gid="22"/>
   <tile gid="22"/>
   <tile gid="22"/>
   <tile gid="22"/>
   <tile gid="22"/>
   <tile gid="22"/>
   <tile gid="22"/>
   <tile gid="22"/>
   <tile gid="22"/>
   <tile gid="22"/>
   <tile gid="22"/>
   <tile gid="22"/>
   <tile gid="22"/>
   <tile gid="22"/>
   <tile gid="22"/>
   <tile gid="22"/>
   <tile gid="22"/>
   <tile gid="22"/>
   <tile gid="22"/>
   <tile gid="22"/>
   <tile gid="23"/>
  </data>
 </layer>
 <layer id="2" name="Tile Layer 2" width="25" height="14">
  <data>
   <tile/>
   <tile/>
   <tile/>
   <tile/>
   <tile/>
   <tile/>
   <tile/>
   <tile/>
   <tile/>
   <tile/>
   <tile/>
   <tile/>
   <tile/>
   <tile/>
   <tile/>
   <tile/>
   <tile/>
   <tile/>
   <tile/>
   <tile/>
   <tile/>
   <tile/>
   <tile/>
   <tile/>
   <tile/>
   <tile/>
   <tile/>
   <tile/>
   <tile gid="41"/>
   <tile gid="42"/>
   <tile gid="43"/>
   <tile/>
   <tile/>
   <tile/>
   <tile/>
   <tile/>
   <tile/>
   <tile/>
   <tile/>
   <tile/>
   <tile gid="41"/>
   <tile gid="42"/>
   <tile gid="43"/>
   <tile/>
   <tile/>
   <tile/>
   <tile/>
   <tile/>
   <tile/>
   <tile/>
   <tile/>
   <tile/>
   <tile/>
   <tile gid="53"/>
   <tile gid="54"/>
   <tile gid="55"/>
   <tile/>
   <tile/>
   <tile/>
   <tile/>
   <tile/>
   <tile/>
   <tile/>
   <tile/>
   <tile/>
   <tile gid="53"/>
   <tile gid="54"/>
   <tile gid="55"/>
   <tile/>
   <tile/>
   <tile/>
   <tile/>
   <tile/>
   <tile/>
   <tile/>
   <tile/>
   <tile/>
   <tile/>
   <tile gid="65"/>
   <tile gid="66"/>
   <tile gid="67"/>
   <tile/>
   <tile/>
   <tile/>
   <tile/>
   <tile/>
   <tile/>
   <tile/>
   <tile/>
   <tile/>
   <tile gid="65"/>
   <tile gid="66"/>
   <tile gid="67"/>
   <tile/>
   <tile/>
   <tile/>
   <tile/>
   <tile/>
   <tile/>
   <tile/>
   <tile/>
   <tile/>
   <tile/>
   <tile/>
   <tile/>
   <tile/>
   <tile/>
   <tile/>
   <tile/>
   <tile/>
   <tile gid="149"/>
   <tile gid="150"/>
   <tile/>
   <tile/>
   <tile/>
   <tile/>
   <tile/>
   <tile/>
   <tile/>
   <tile/>
   <tile/>
   <tile/>
   <tile/>
   <tile/>
   <tile/>
   <tile/>
   <tile/>
   <tile/>
   <tile/>
   <tile/>
   <tile/>
   <tile/>
   <tile/>
   <tile/>
   <tile/>
   <tile gid="151"/>
   <tile gid="152"/>
   <tile/>
   <tile/>
   <tile/>
   <tile/>
   <tile/>
   <tile/>
   <tile/>
   <tile/>
   <tile/>
   <tile/>
   <tile/>
   <tile/>
   <tile/>
   <tile/>
   <tile/>
   <tile/>
   <tile/>
   <tile/>
   <tile/>
   <tile/>
   <tile/>
   <tile/>
   <tile/>
   <tile gid="153"/>
   <tile gid="154"/>
   <tile/>
   <tile/>
   <tile/>
   <tile/>
   <tile/>
   <tile/>
   <tile/>
   <tile/>
   <tile/>
   <tile/>
   <tile/>
   <tile/>
   <tile/>
   <tile/>
   <tile/>
   <tile/>
   <tile/>
   <tile/>
   <tile/>
   <tile/>
   <tile/>
   <tile/>
   <tile/>
   <tile gid="155"/>
   <tile gid="156"/>
   <tile/>
   <tile/>
   <tile/>
   <tile/>
   <tile/>
   <tile/>
   <tile/>
   <tile/>
   <tile/>
   <tile/>
   <tile/>
   <tile/>
   <tile/>
   <tile/>
   <tile/>
   <tile/>
   <tile gid="41"/>
   <tile gid="42"/>
   <tile gid="43"/>
   <tile/>
   <tile/>
   <tile/>
   <tile/>
   <tile/>
   <tile/>
   <tile/>
   <tile/>
   <tile/>
   <tile gid="41"/>
   <tile gid="42"/>
   <tile gid="43"/>
   <tile/>
   <tile/>
   <tile/>
   <tile/>
   <tile/>
   <tile/>
   <tile/>
   <tile/>
   <tile/>
   <tile/>
   <tile gid="53"/>
   <tile gid="54"/>
   <tile gid="55"/>
   <tile/>
   <tile/>
   <tile/>
   <tile/>
   <tile/>
   <tile/>
   <tile/>
   <tile/>
   <tile/>
   <tile gid="53"/>
   <tile gid="54"/>
   <tile gid="55"/>
   <tile/>
   <tile/>
   <tile/>
   <tile/>
   <tile/>
   <tile/>
   <tile/>
   <tile/>
   <tile/>
   <tile/>
   <tile gid="65"/>
   <tile gid="66"/>
   <tile gid="67"/>
   <tile/>
   <tile/>
   <tile/>
   <tile/>
   <tile/>
   <tile/>
   <tile/>
   <tile/>
   <tile/>
   <tile gid="65"/>
   <tile gid="66"/>
   <tile gid="67"/>
   <tile/>
   <tile/>
   <tile/>
   <tile/>
   <tile/>
   <tile/>
   <tile/>
   <tile/>
   <tile/>
   <tile/>
   <tile/>
   <tile/>
   <tile/>
   <tile/>
   <tile/>
   <tile/>
   <tile/>
   <tile/>
   <tile/>
   <tile/>
   <tile/>
   <tile/>
   <tile/>
   <tile/>
   <tile/>
   <tile/>
   <tile/>
   <tile/>
   <tile/>
   <tile/>
   <tile/>
   <tile/>
   <tile/>
   <tile/>
   <tile/>
   <tile/>
   <tile/>
   <tile/>
   <tile/>
   <tile/>
   <tile/>
   <tile/>
   <tile/>
   <tile/>
   <tile/>
   <tile/>
   <tile/>
   <tile/>
   <tile/>
   <tile/>
   <tile/>
   <tile/>
   <tile/>
   <tile/>
   <tile/>
   <tile/>
   <tile/>
   <tile/>
   <tile/>
   <tile/>
   <tile/>
   <tile/>
   <tile/>
   <tile/>
   <tile/>
   <tile/>
   <tile/>
   <tile/>
   <tile/>
   <tile/>
   <tile/>
   <tile/>
   <tile/>
   <tile/>
   <tile/>
   <tile/>
   <tile/>
   <tile/>
   <tile/>
   <tile/>
   <tile/>
   <tile/>
  </data>
 </layer>
 <objectgroup id="3" name="spawn points">
  <object id="1" name="player" x="511" y="437">
   <point/>
  </object>
 </objectgroup>
</map>
