<?xml version="1.0" encoding="UTF-8"?>
<map version="1.10" tiledversion="1.11.2" orientation="orthogonal" renderorder="right-down" width="30" height="20" tilewidth="32" tileheight="32" infinite="0" nextlayerid="2" nextobjectid="1">
 <tileset firstgid="1" name="Ground" tilewidth="32" tileheight="32" tilecount="160" columns="20">
  <image source="Tilemap_Flat.png" width="640" height="256"/>
 </tileset>
 <layer id="1" name="Tile Layer 1" width="30" height="20">
  <data>
   <tile gid="7"/>
   <tile gid="2"/>
   <tile gid="3"/>
   <tile gid="4"/>
   <tile gid="5"/>
   <tile gid="2"/>
   <tile gid="3"/>
   <tile gid="4"/>
   <tile gid="5"/>
   <tile gid="2"/>
   <tile gid="3"/>
   <tile gid="4"/>
   <tile gid="5"/>
   <tile gid="2"/>
   <tile gid="3"/>
   <tile gid="4"/>
   <tile gid="5"/>
   <tile gid="2"/>
   <tile gid="3"/>
   <tile gid="4"/>
   <tile gid="5"/>
   <tile gid="2"/>
   <tile gid="7"/>
   <tile gid="7"/>
   <tile gid="7"/>
   <tile gid="7"/>
   <tile gid="3"/>
   <tile gid="4"/>
   <tile gid="5"/>
   <tile gid="6"/>
   <tile gid="21"/>
   <tile gid="22"/>
   <tile gid="23"/>
   <tile gid="24"/>
   <tile gid="25"/>
   <tile gid="25"/>
   <tile gid="22"/>
   <tile gid="23"/>
   <tile gid="24"/>
   <tile gid="25"/>
   <tile gid="22"/>
   <tile gid="23"/>
   <tile gid="24"/>
   <tile gid="25"/>
   <tile gid="22"/>
   <tile gid="23"/>
   <tile gid="22"/>
   <tile gid="23"/>
   <tile gid="24"/>
   <tile gid="25"/>
   <tile gid="22"/>
   <tile gid="23"/>
   <tile gid="24"/>
   <tile gid="25"/>
   <tile gid="44"/>
   <tile gid="22"/>
   <tile gid="22"/>
   <tile gid="23"/>
   <tile gid="24"/>
   <tile gid="25"/>
   <tile gid="41"/>
   <tile gid="22"/>
   <tile gid="23"/>
   <tile gid="24"/>
   <tile gid="25"/>
   <tile gid="45"/>
   <tile gid="42"/>
   <tile gid="43"/>
   <tile gid="44"/>
   <tile gid="45"/>
   <tile gid="42"/>
   <tile gid="43"/>
   <tile gid="44"/>
   <tile gid="45"/>
   <tile gid="42"/>
   <tile gid="43"/>
   <tile gid="42"/>
   <tile gid="43"/>
   <tile gid="44"/>
   <tile gid="45"/>
   <tile gid="42"/>
   <tile gid="43"/>
   <tile gid="44"/>
   <tile gid="45"/>
   <tile gid="64"/>
   <tile gid="42"/>
   <tile gid="42"/>
   <tile gid="43"/>
   <tile gid="44"/>
   <tile gid="45"/>
   <tile gid="61"/>
   <tile gid="22"/>
   <tile gid="22"/>
   <tile gid="22"/>
   <tile gid="22"/>
   <tile gid="22"/>
   <tile gid="62"/>
   <tile gid="63"/>
   <tile gid="64"/>
   <tile gid="65"/>
   <tile gid="62"/>
   <tile gid="63"/>
   <tile gid="64"/>
   <tile gid="65"/>
   <tile gid="62"/>
   <tile gid="63"/>
   <tile gid="62"/>
   <tile gid="63"/>
   <tile gid="64"/>
   <tile gid="65"/>
   <tile gid="62"/>
   <tile gid="63"/>
   <tile gid="64"/>
   <tile gid="65"/>
   <tile gid="84"/>
   <tile gid="62"/>
   <tile gid="62"/>
   <tile gid="63"/>
   <tile gid="64"/>
   <tile gid="65"/>
   <tile gid="81"/>
   <tile gid="42"/>
   <tile gid="42"/>
   <tile gid="42"/>
   <tile gid="42"/>
   <tile gid="42"/>
   <tile gid="82"/>
   <tile gid="83"/>
   <tile gid="84"/>
   <tile gid="85"/>
   <tile gid="82"/>
   <tile gid="83"/>
   <tile gid="84"/>
   <tile gid="85"/>
   <tile gid="82"/>
   <tile gid="83"/>
   <tile gid="82"/>
   <tile gid="83"/>
   <tile gid="84"/>
   <tile gid="85"/>
   <tile gid="82"/>
   <tile gid="83"/>
   <tile gid="84"/>
   <tile gid="85"/>
   <tile gid="84"/>
   <tile gid="82"/>
   <tile gid="82"/>
   <tile gid="83"/>
   <tile gid="84"/>
   <tile gid="85"/>
   <tile gid="7"/>
   <tile gid="62"/>
   <tile gid="62"/>
   <tile gid="62"/>
   <tile gid="62"/>
   <tile gid="62"/>
   <tile gid="62"/>
   <tile gid="62"/>
   <tile gid="62"/>
   <tile gid="62"/>
   <tile gid="62"/>
   <tile gid="82"/>
   <tile gid="82"/>
   <tile gid="82"/>
   <tile gid="82"/>
   <tile gid="82"/>
   <tile gid="82"/>
   <tile gid="82"/>
   <tile gid="82"/>
   <tile gid="82"/>
   <tile gid="82"/>
   <tile gid="82"/>
   <tile gid="82"/>
   <tile gid="22"/>
   <tile gid="23"/>
   <tile gid="82"/>
   <tile gid="22"/>
   <tile gid="23"/>
   <tile gid="24"/>
   <tile gid="25"/>
   <tile gid="7"/>
   <tile gid="82"/>
   <tile gid="82"/>
   <tile gid="82"/>
   <tile gid="82"/>
   <tile gid="82"/>
   <tile gid="82"/>
   <tile gid="82"/>
   <tile gid="82"/>
   <tile gid="82"/>
   <tile gid="82"/>
   <tile gid="82"/>
   <tile gid="83"/>
   <tile gid="84"/>
   <tile gid="85"/>
   <tile gid="65"/>
   <tile gid="65"/>
   <tile gid="65"/>
   <tile gid="65"/>
   <tile gid="65"/>
   <tile gid="32"/>
   <tile gid="32"/>
   <tile gid="33"/>
   <tile gid="42"/>
   <tile gid="22"/>
   <tile gid="22"/>
   <tile gid="42"/>
   <tile gid="43"/>
   <tile gid="44"/>
   <tile gid="45"/>
   <tile gid="7"/>
   <tile gid="22"/>
   <tile gid="22"/>
   <tile gid="23"/>
   <tile gid="24"/>
   <tile gid="25"/>
   <tile gid="22"/>
   <tile gid="82"/>
   <tile gid="83"/>
   <tile gid="84"/>
   <tile gid="85"/>
   <tile gid="85"/>
   <tile gid="85"/>
   <tile gid="85"/>
   <tile gid="85"/>
   <tile gid="85"/>
   <tile gid="85"/>
   <tile gid="85"/>
   <tile gid="85"/>
   <tile gid="85"/>
   <tile gid="32"/>
   <tile gid="32"/>
   <tile gid="33"/>
   <tile gid="33"/>
   <tile gid="42"/>
   <tile gid="42"/>
   <tile gid="62"/>
   <tile gid="63"/>
   <tile gid="64"/>
   <tile gid="65"/>
   <tile gid="7"/>
   <tile gid="42"/>
   <tile gid="42"/>
   <tile gid="22"/>
   <tile gid="22"/>
   <tile gid="22"/>
   <tile gid="42"/>
   <tile gid="82"/>
   <tile gid="83"/>
   <tile gid="84"/>
   <tile gid="32"/>
   <tile gid="32"/>
   <tile gid="32"/>
   <tile gid="32"/>
   <tile gid="32"/>
   <tile gid="32"/>
   <tile gid="32"/>
   <tile gid="32"/>
   <tile gid="32"/>
   <tile gid="32"/>
   <tile gid="52"/>
   <tile gid="32"/>
   <tile gid="33"/>
   <tile gid="53"/>
   <tile gid="62"/>
   <tile gid="62"/>
   <tile gid="82"/>
   <tile gid="83"/>
   <tile gid="84"/>
   <tile gid="85"/>
   <tile gid="7"/>
   <tile gid="62"/>
   <tile gid="62"/>
   <tile gid="42"/>
   <tile gid="42"/>
   <tile gid="42"/>
   <tile gid="62"/>
   <tile gid="82"/>
   <tile gid="83"/>
   <tile gid="84"/>
   <tile gid="52"/>
   <tile gid="52"/>
   <tile gid="52"/>
   <tile gid="52"/>
   <tile gid="52"/>
   <tile gid="52"/>
   <tile gid="52"/>
   <tile gid="52"/>
   <tile gid="52"/>
   <tile gid="52"/>
   <tile gid="32"/>
   <tile gid="33"/>
   <tile gid="53"/>
   <tile gid="73"/>
   <tile gid="82"/>
   <tile gid="82"/>
   <tile gid="22"/>
   <tile gid="23"/>
   <tile gid="24"/>
   <tile gid="25"/>
   <tile gid="41"/>
   <tile gid="82"/>
   <tile gid="82"/>
   <tile gid="62"/>
   <tile gid="62"/>
   <tile gid="62"/>
   <tile gid="82"/>
   <tile gid="82"/>
   <tile gid="83"/>
   <tile gid="84"/>
   <tile gid="72"/>
   <tile gid="72"/>
   <tile gid="72"/>
   <tile gid="72"/>
   <tile gid="72"/>
   <tile gid="72"/>
   <tile gid="72"/>
   <tile gid="72"/>
   <tile gid="72"/>
   <tile gid="72"/>
   <tile gid="32"/>
   <tile gid="33"/>
   <tile gid="73"/>
   <tile gid="93"/>
   <tile gid="82"/>
   <tile gid="83"/>
   <tile gid="42"/>
   <tile gid="43"/>
   <tile gid="44"/>
   <tile gid="45"/>
   <tile gid="61"/>
   <tile gid="72"/>
   <tile gid="32"/>
   <tile gid="33"/>
   <tile gid="33"/>
   <tile gid="33"/>
   <tile gid="33"/>
   <tile gid="33"/>
   <tile gid="33"/>
   <tile gid="33"/>
   <tile gid="33"/>
   <tile gid="92"/>
   <tile gid="92"/>
   <tile gid="92"/>
   <tile gid="92"/>
   <tile gid="92"/>
   <tile gid="92"/>
   <tile gid="92"/>
   <tile gid="92"/>
   <tile gid="32"/>
   <tile gid="33"/>
   <tile gid="33"/>
   <tile gid="93"/>
   <tile gid="93"/>
   <tile gid="22"/>
   <tile gid="62"/>
   <tile gid="62"/>
   <tile gid="63"/>
   <tile gid="64"/>
   <tile gid="65"/>
   <tile gid="81"/>
   <tile gid="32"/>
   <tile gid="33"/>
   <tile gid="33"/>
   <tile gid="53"/>
   <tile gid="53"/>
   <tile gid="53"/>
   <tile gid="53"/>
   <tile gid="53"/>
   <tile gid="53"/>
   <tile gid="53"/>
   <tile gid="33"/>
   <tile gid="33"/>
   <tile gid="33"/>
   <tile gid="33"/>
   <tile gid="33"/>
   <tile gid="33"/>
   <tile gid="72"/>
   <tile gid="72"/>
   <tile gid="32"/>
   <tile gid="33"/>
   <tile gid="53"/>
   <tile gid="92"/>
   <tile gid="93"/>
   <tile gid="23"/>
   <tile gid="82"/>
   <tile gid="82"/>
   <tile gid="83"/>
   <tile gid="84"/>
   <tile gid="85"/>
   <tile gid="21"/>
   <tile gid="52"/>
   <tile gid="32"/>
   <tile gid="32"/>
   <tile gid="32"/>
   <tile gid="32"/>
   <tile gid="32"/>
   <tile gid="32"/>
   <tile gid="32"/>
   <tile gid="33"/>
   <tile gid="73"/>
   <tile gid="53"/>
   <tile gid="53"/>
   <tile gid="53"/>
   <tile gid="53"/>
   <tile gid="53"/>
   <tile gid="53"/>
   <tile gid="33"/>
   <tile gid="33"/>
   <tile gid="33"/>
   <tile gid="33"/>
   <tile gid="73"/>
   <tile gid="72"/>
   <tile gid="22"/>
   <tile gid="23"/>
   <tile gid="42"/>
   <tile gid="22"/>
   <tile gid="23"/>
   <tile gid="24"/>
   <tile gid="25"/>
   <tile gid="41"/>
   <tile gid="72"/>
   <tile gid="52"/>
   <tile gid="52"/>
   <tile gid="52"/>
   <tile gid="52"/>
   <tile gid="52"/>
   <tile gid="52"/>
   <tile gid="32"/>
   <tile gid="32"/>
   <tile gid="32"/>
   <tile gid="32"/>
   <tile gid="32"/>
   <tile gid="33"/>
   <tile gid="73"/>
   <tile gid="73"/>
   <tile gid="73"/>
   <tile gid="53"/>
   <tile gid="53"/>
   <tile gid="53"/>
   <tile gid="53"/>
   <tile gid="93"/>
   <tile gid="72"/>
   <tile gid="22"/>
   <tile gid="23"/>
   <tile gid="62"/>
   <tile gid="42"/>
   <tile gid="43"/>
   <tile gid="44"/>
   <tile gid="45"/>
   <tile gid="21"/>
   <tile gid="92"/>
   <tile gid="72"/>
   <tile gid="72"/>
   <tile gid="72"/>
   <tile gid="72"/>
   <tile gid="72"/>
   <tile gid="72"/>
   <tile gid="52"/>
   <tile gid="52"/>
   <tile gid="52"/>
   <tile gid="52"/>
   <tile gid="52"/>
   <tile gid="32"/>
   <tile gid="32"/>
   <tile gid="32"/>
   <tile gid="32"/>
   <tile gid="32"/>
   <tile gid="32"/>
   <tile gid="32"/>
   <tile gid="32"/>
   <tile gid="32"/>
   <tile gid="32"/>
   <tile gid="33"/>
   <tile gid="23"/>
   <tile gid="82"/>
   <tile gid="22"/>
   <tile gid="23"/>
   <tile gid="24"/>
   <tile gid="25"/>
   <tile gid="41"/>
   <tile gid="72"/>
   <tile gid="92"/>
   <tile gid="92"/>
   <tile gid="92"/>
   <tile gid="92"/>
   <tile gid="92"/>
   <tile gid="92"/>
   <tile gid="72"/>
   <tile gid="72"/>
   <tile gid="72"/>
   <tile gid="72"/>
   <tile gid="72"/>
   <tile gid="52"/>
   <tile gid="52"/>
   <tile gid="52"/>
   <tile gid="52"/>
   <tile gid="52"/>
   <tile gid="52"/>
   <tile gid="52"/>
   <tile gid="52"/>
   <tile gid="52"/>
   <tile gid="52"/>
   <tile gid="53"/>
   <tile gid="23"/>
   <tile gid="42"/>
   <tile gid="42"/>
   <tile gid="43"/>
   <tile gid="44"/>
   <tile gid="45"/>
   <tile gid="61"/>
   <tile gid="72"/>
   <tile gid="72"/>
   <tile gid="72"/>
   <tile gid="72"/>
   <tile gid="72"/>
   <tile gid="72"/>
   <tile gid="72"/>
   <tile gid="92"/>
   <tile gid="92"/>
   <tile gid="92"/>
   <tile gid="92"/>
   <tile gid="92"/>
   <tile gid="72"/>
   <tile gid="72"/>
   <tile gid="72"/>
   <tile gid="72"/>
   <tile gid="72"/>
   <tile gid="72"/>
   <tile gid="72"/>
   <tile gid="72"/>
   <tile gid="72"/>
   <tile gid="72"/>
   <tile gid="73"/>
   <tile gid="43"/>
   <tile gid="62"/>
   <tile gid="62"/>
   <tile gid="63"/>
   <tile gid="64"/>
   <tile gid="65"/>
   <tile gid="81"/>
   <tile gid="72"/>
   <tile gid="72"/>
   <tile gid="72"/>
   <tile gid="72"/>
   <tile gid="72"/>
   <tile gid="72"/>
   <tile gid="72"/>
   <tile gid="72"/>
   <tile gid="72"/>
   <tile gid="72"/>
   <tile gid="72"/>
   <tile gid="72"/>
   <tile gid="92"/>
   <tile gid="92"/>
   <tile gid="92"/>
   <tile gid="92"/>
   <tile gid="92"/>
   <tile gid="92"/>
   <tile gid="92"/>
   <tile gid="92"/>
   <tile gid="92"/>
   <tile gid="92"/>
   <tile gid="93"/>
   <tile gid="63"/>
   <tile gid="82"/>
   <tile gid="82"/>
   <tile gid="83"/>
   <tile gid="84"/>
   <tile gid="85"/>
   <tile gid="141"/>
   <tile gid="142"/>
   <tile gid="143"/>
   <tile gid="144"/>
   <tile gid="145"/>
   <tile gid="142"/>
   <tile gid="143"/>
   <tile gid="142"/>
   <tile gid="143"/>
   <tile gid="144"/>
   <tile gid="145"/>
   <tile gid="145"/>
   <tile gid="145"/>
   <tile gid="145"/>
   <tile gid="142"/>
   <tile gid="143"/>
   <tile gid="144"/>
   <tile gid="145"/>
   <tile gid="145"/>
   <tile gid="142"/>
   <tile gid="143"/>
   <tile gid="144"/>
   <tile gid="142"/>
   <tile gid="143"/>
   <tile gid="144"/>
   <tile gid="145"/>
   <tile gid="143"/>
   <tile gid="144"/>
   <tile gid="145"/>
   <tile gid="146"/>
  </data>
 </layer>
</map>
