<?xml version="1.0" encoding="UTF-8"?>
<map version="1.10" tiledversion="1.11.2" orientation="orthogonal" renderorder="right-down" width="25" height="14" tilewidth="64" tileheight="64" infinite="0" nextlayerid="8" nextobjectid="4">
 <tileset firstgid="1" name="Tilemap_Flat" tilewidth="64" tileheight="64" tilecount="40" columns="10">
  <image source="Tilemap_Flat.png" width="640" height="256"/>
 </tileset>
 <tileset firstgid="41" name="Tree" tilewidth="64" tileheight="64" tilecount="108" columns="12">
  <image source="Tree.png" width="768" height="576"/>
 </tileset>
 <layer id="5" name="Tile Layer 1" width="25" height="14">
  <data>
   <tile gid="1"/>
   <tile gid="2"/>
   <tile gid="2"/>
   <tile gid="2"/>
   <tile gid="2"/>
   <tile gid="2"/>
   <tile gid="2"/>
   <tile gid="2"/>
   <tile gid="2"/>
   <tile gid="2"/>
   <tile gid="2"/>
   <tile gid="2"/>
   <tile gid="2"/>
   <tile gid="2"/>
   <tile gid="2"/>
   <tile gid="2"/>
   <tile gid="2"/>
   <tile gid="2"/>
   <tile gid="2"/>
   <tile gid="2"/>
   <tile gid="2"/>
   <tile gid="2"/>
   <tile gid="2"/>
   <tile gid="2"/>
   <tile gid="3"/>
   <tile gid="11"/>
   <tile gid="12"/>
   <tile gid="12"/>
   <tile gid="12"/>
   <tile gid="12"/>
   <tile gid="12"/>
   <tile gid="12"/>
   <tile gid="12"/>
   <tile gid="12"/>
   <tile gid="12"/>
   <tile gid="12"/>
   <tile gid="12"/>
   <tile gid="12"/>
   <tile gid="12"/>
   <tile gid="12"/>
   <tile gid="12"/>
   <tile gid="12"/>
   <tile gid="12"/>
   <tile gid="12"/>
   <tile gid="12"/>
   <tile gid="12"/>
   <tile gid="12"/>
   <tile gid="12"/>
   <tile gid="12"/>
   <tile gid="13"/>
   <tile gid="11"/>
   <tile gid="12"/>
   <tile gid="12"/>
   <tile gid="12"/>
   <tile gid="12"/>
   <tile gid="12"/>
   <tile gid="12"/>
   <tile gid="12"/>
   <tile gid="12"/>
   <tile gid="12"/>
   <tile gid="12"/>
   <tile gid="12"/>
   <tile gid="12"/>
   <tile gid="12"/>
   <tile gid="12"/>
   <tile gid="12"/>
   <tile gid="12"/>
   <tile gid="12"/>
   <tile gid="12"/>
   <tile gid="12"/>
   <tile gid="12"/>
   <tile gid="12"/>
   <tile gid="12"/>
   <tile gid="12"/>
   <tile gid="13"/>
   <tile gid="11"/>
   <tile gid="12"/>
   <tile gid="12"/>
   <tile gid="12"/>
   <tile gid="12"/>
   <tile gid="12"/>
   <tile gid="12"/>
   <tile gid="12"/>
   <tile gid="12"/>
   <tile gid="12"/>
   <tile gid="12"/>
   <tile gid="12"/>
   <tile gid="12"/>
   <tile gid="12"/>
   <tile gid="12"/>
   <tile gid="12"/>
   <tile gid="12"/>
   <tile gid="12"/>
   <tile gid="12"/>
   <tile gid="12"/>
   <tile gid="12"/>
   <tile gid="12"/>
   <tile gid="12"/>
   <tile gid="12"/>
   <tile gid="13"/>
   <tile gid="11"/>
   <tile gid="12"/>
   <tile gid="12"/>
   <tile gid="12"/>
   <tile gid="12"/>
   <tile gid="12"/>
   <tile gid="12"/>
   <tile gid="12"/>
   <tile gid="12"/>
   <tile gid="12"/>
   <tile gid="12"/>
   <tile gid="12"/>
   <tile gid="12"/>
   <tile gid="12"/>
   <tile gid="12"/>
   <tile gid="12"/>
   <tile gid="12"/>
   <tile gid="12"/>
   <tile gid="12"/>
   <tile gid="12"/>
   <tile gid="12"/>
   <tile gid="12"/>
   <tile gid="12"/>
   <tile gid="12"/>
   <tile gid="13"/>
   <tile gid="11"/>
   <tile gid="12"/>
   <tile gid="12"/>
   <tile gid="12"/>
   <tile gid="12"/>
   <tile gid="12"/>
   <tile gid="12"/>
   <tile gid="12"/>
   <tile gid="12"/>
   <tile gid="12"/>
   <tile gid="12"/>
   <tile gid="12"/>
   <tile gid="12"/>
   <tile gid="12"/>
   <tile gid="12"/>
   <tile gid="12"/>
   <tile gid="12"/>
   <tile gid="12"/>
   <tile gid="12"/>
   <tile gid="12"/>
   <tile gid="12"/>
   <tile gid="12"/>
   <tile gid="12"/>
   <tile gid="12"/>
   <tile gid="13"/>
   <tile gid="11"/>
   <tile gid="12"/>
   <tile gid="12"/>
   <tile gid="12"/>
   <tile gid="12"/>
   <tile gid="12"/>
   <tile gid="12"/>
   <tile gid="12"/>
   <tile gid="12"/>
   <tile gid="12"/>
   <tile gid="12"/>
   <tile gid="12"/>
   <tile gid="12"/>
   <tile gid="12"/>
   <tile gid="12"/>
   <tile gid="12"/>
   <tile gid="12"/>
   <tile gid="12"/>
   <tile gid="12"/>
   <tile gid="12"/>
   <tile gid="12"/>
   <tile gid="12"/>
   <tile gid="12"/>
   <tile gid="12"/>
   <tile gid="13"/>
   <tile gid="11"/>
   <tile gid="12"/>
   <tile gid="12"/>
   <tile gid="12"/>
   <tile gid="12"/>
   <tile gid="12"/>
   <tile gid="12"/>
   <tile gid="12"/>
   <tile gid="12"/>
   <tile gid="12"/>
   <tile gid="12"/>
   <tile gid="12"/>
   <tile gid="12"/>
   <tile gid="12"/>
   <tile gid="12"/>
   <tile gid="12"/>
   <tile gid="12"/>
   <tile gid="12"/>
   <tile gid="12"/>
   <tile gid="12"/>
   <tile gid="12"/>
   <tile gid="12"/>
   <tile gid="12"/>
   <tile gid="12"/>
   <tile gid="13"/>
   <tile gid="11"/>
   <tile gid="12"/>
   <tile gid="12"/>
   <tile gid="12"/>
   <tile gid="12"/>
   <tile gid="12"/>
   <tile gid="12"/>
   <tile gid="12"/>
   <tile gid="12"/>
   <tile gid="12"/>
   <tile gid="12"/>
   <tile gid="12"/>
   <tile gid="12"/>
   <tile gid="12"/>
   <tile gid="12"/>
   <tile gid="12"/>
   <tile gid="12"/>
   <tile gid="12"/>
   <tile gid="12"/>
   <tile gid="12"/>
   <tile gid="12"/>
   <tile gid="12"/>
   <tile gid="12"/>
   <tile gid="12"/>
   <tile gid="13"/>
   <tile gid="11"/>
   <tile gid="12"/>
   <tile gid="12"/>
   <tile gid="12"/>
   <tile gid="12"/>
   <tile gid="12"/>
   <tile gid="12"/>
   <tile gid="12"/>
   <tile gid="12"/>
   <tile gid="12"/>
   <tile gid="12"/>
   <tile gid="12"/>
   <tile gid="12"/>
   <tile gid="12"/>
   <tile gid="12"/>
   <tile gid="12"/>
   <tile gid="12"/>
   <tile gid="12"/>
   <tile gid="12"/>
   <tile gid="12"/>
   <tile gid="12"/>
   <tile gid="12"/>
   <tile gid="12"/>
   <tile gid="12"/>
   <tile gid="13"/>
   <tile gid="11"/>
   <tile gid="12"/>
   <tile gid="12"/>
   <tile gid="12"/>
   <tile gid="12"/>
   <tile gid="12"/>
   <tile gid="12"/>
   <tile gid="12"/>
   <tile gid="12"/>
   <tile gid="12"/>
   <tile gid="12"/>
   <tile gid="12"/>
   <tile gid="12"/>
   <tile gid="12"/>
   <tile gid="12"/>
   <tile gid="12"/>
   <tile gid="12"/>
   <tile gid="12"/>
   <tile gid="12"/>
   <tile gid="12"/>
   <tile gid="12"/>
   <tile gid="12"/>
   <tile gid="12"/>
   <tile gid="12"/>
   <tile gid="13"/>
   <tile gid="11"/>
   <tile gid="12"/>
   <tile gid="12"/>
   <tile gid="12"/>
   <tile gid="12"/>
   <tile gid="12"/>
   <tile gid="12"/>
   <tile gid="12"/>
   <tile gid="12"/>
   <tile gid="12"/>
   <tile gid="12"/>
   <tile gid="12"/>
   <tile gid="12"/>
   <tile gid="12"/>
   <tile gid="12"/>
   <tile gid="12"/>
   <tile gid="12"/>
   <tile gid="12"/>
   <tile gid="12"/>
   <tile gid="12"/>
   <tile gid="12"/>
   <tile gid="12"/>
   <tile gid="12"/>
   <tile gid="12"/>
   <tile gid="13"/>
   <tile gid="11"/>
   <tile gid="12"/>
   <tile gid="12"/>
   <tile gid="12"/>
   <tile gid="12"/>
   <tile gid="12"/>
   <tile gid="12"/>
   <tile gid="12"/>
   <tile gid="12"/>
   <tile gid="12"/>
   <tile gid="12"/>
   <tile gid="12"/>
   <tile gid="12"/>
   <tile gid="12"/>
   <tile gid="12"/>
   <tile gid="12"/>
   <tile gid="12"/>
   <tile gid="12"/>
   <tile gid="12"/>
   <tile gid="12"/>
   <tile gid="12"/>
   <tile gid="12"/>
   <tile gid="12"/>
   <tile gid="12"/>
   <tile gid="13"/>
   <tile gid="21"/>
   <tile gid="22"/>
   <tile gid="22"/>
   <tile gid="22"/>
   <tile gid="22"/>
   <tile gid="22"/>
   <tile gid="22"/>
   <tile gid="22"/>
   <tile gid="22"/>
   <tile gid="22"/>
   <tile gid="22"/>
   <tile gid="22"/>
   <tile gid="22"/>
   <tile gid="22"/>
   <tile gid="22"/>
   <tile gid="22"/>
   <tile gid="22"/>
   <tile gid="22"/>
   <tile gid="22"/>
   <tile gid="22"/>
   <tile gid="22"/>
   <tile gid="22"/>
   <tile gid="22"/>
   <tile gid="22"/>
   <tile gid="23"/>
  </data>
 </layer>
 <layer id="6" name="Tile Layer 2" width="25" height="14">
  <data>
   <tile/>
   <tile/>
   <tile/>
   <tile/>
   <tile/>
   <tile/>
   <tile/>
   <tile/>
   <tile/>
   <tile/>
   <tile/>
   <tile/>
   <tile/>
   <tile/>
   <tile/>
   <tile/>
   <tile/>
   <tile/>
   <tile/>
   <tile/>
   <tile/>
   <tile/>
   <tile/>
   <tile/>
   <tile/>
   <tile/>
   <tile/>
   <tile/>
   <tile/>
   <tile/>
   <tile/>
   <tile/>
   <tile/>
   <tile/>
   <tile/>
   <tile/>
   <tile/>
   <tile/>
   <tile/>
   <tile/>
   <tile/>
   <tile/>
   <tile/>
   <tile/>
   <tile/>
   <tile/>
   <tile/>
   <tile/>
   <tile/>
   <tile/>
   <tile/>
   <tile/>
   <tile/>
   <tile/>
   <tile/>
   <tile gid="41"/>
   <tile gid="42"/>
   <tile gid="43"/>
   <tile/>
   <tile/>
   <tile/>
   <tile/>
   <tile/>
   <tile/>
   <tile/>
   <tile/>
   <tile/>
   <tile/>
   <tile gid="41"/>
   <tile gid="42"/>
   <tile gid="43"/>
   <tile/>
   <tile/>
   <tile/>
   <tile/>
   <tile/>
   <tile/>
   <tile/>
   <tile/>
   <tile/>
   <tile gid="53"/>
   <tile gid="54"/>
   <tile gid="55"/>
   <tile/>
   <tile/>
   <tile/>
   <tile/>
   <tile/>
   <tile/>
   <tile/>
   <tile/>
   <tile/>
   <tile/>
   <tile gid="53"/>
   <tile gid="54"/>
   <tile gid="55"/>
   <tile/>
   <tile/>
   <tile/>
   <tile/>
   <tile/>
   <tile/>
   <tile/>
   <tile/>
   <tile/>
   <tile gid="65"/>
   <tile gid="66"/>
   <tile gid="67"/>
   <tile/>
   <tile/>
   <tile/>
   <tile/>
   <tile/>
   <tile/>
   <tile/>
   <tile/>
   <tile/>
   <tile/>
   <tile gid="65"/>
   <tile gid="66"/>
   <tile gid="67"/>
   <tile/>
   <tile/>
   <tile/>
   <tile/>
   <tile/>
   <tile/>
   <tile/>
   <tile/>
   <tile/>
   <tile/>
   <tile/>
   <tile/>
   <tile/>
   <tile/>
   <tile/>
   <tile/>
   <tile/>
   <tile/>
   <tile/>
   <tile/>
   <tile/>
   <tile/>
   <tile/>
   <tile/>
   <tile/>
   <tile/>
   <tile/>
   <tile/>
   <tile/>
   <tile/>
   <tile/>
   <tile/>
   <tile/>
   <tile/>
   <tile/>
   <tile/>
   <tile/>
   <tile/>
   <tile/>
   <tile/>
   <tile/>
   <tile/>
   <tile/>
   <tile/>
   <tile/>
   <tile/>
   <tile/>
   <tile/>
   <tile/>
   <tile/>
   <tile/>
   <tile/>
   <tile/>
   <tile/>
   <tile/>
   <tile/>
   <tile/>
   <tile/>
   <tile/>
   <tile/>
   <tile/>
   <tile/>
   <tile gid="41"/>
   <tile gid="42"/>
   <tile gid="43"/>
   <tile/>
   <tile/>
   <tile/>
   <tile/>
   <tile/>
   <tile gid="41"/>
   <tile gid="42"/>
   <tile gid="43"/>
   <tile/>
   <tile/>
   <tile/>
   <tile/>
   <tile/>
   <tile/>
   <tile/>
   <tile/>
   <tile/>
   <tile/>
   <tile/>
   <tile/>
   <tile/>
   <tile/>
   <tile gid="53"/>
   <tile gid="54"/>
   <tile gid="55"/>
   <tile/>
   <tile/>
   <tile/>
   <tile/>
   <tile/>
   <tile gid="53"/>
   <tile gid="54"/>
   <tile gid="55"/>
   <tile/>
   <tile/>
   <tile/>
   <tile/>
   <tile/>
   <tile/>
   <tile/>
   <tile/>
   <tile/>
   <tile/>
   <tile/>
   <tile/>
   <tile/>
   <tile/>
   <tile gid="65"/>
   <tile gid="66"/>
   <tile gid="67"/>
   <tile/>
   <tile/>
   <tile/>
   <tile/>
   <tile/>
   <tile gid="65"/>
   <tile gid="66"/>
   <tile gid="67"/>
   <tile/>
   <tile/>
   <tile/>
   <tile/>
   <tile/>
   <tile/>
   <tile/>
   <tile/>
   <tile/>
   <tile/>
   <tile/>
   <tile/>
   <tile/>
   <tile/>
   <tile/>
   <tile/>
   <tile/>
   <tile/>
   <tile/>
   <tile/>
   <tile/>
   <tile/>
   <tile/>
   <tile/>
   <tile/>
   <tile/>
   <tile/>
   <tile/>
   <tile/>
   <tile/>
   <tile/>
   <tile/>
   <tile/>
   <tile/>
   <tile/>
   <tile/>
   <tile/>
   <tile/>
   <tile/>
   <tile/>
   <tile/>
   <tile/>
   <tile/>
   <tile/>
   <tile/>
   <tile/>
   <tile/>
   <tile/>
   <tile/>
   <tile/>
   <tile/>
   <tile/>
   <tile/>
   <tile/>
   <tile/>
   <tile/>
   <tile/>
   <tile/>
   <tile/>
   <tile/>
   <tile/>
   <tile/>
   <tile/>
   <tile/>
   <tile/>
   <tile/>
   <tile/>
   <tile/>
   <tile/>
   <tile/>
   <tile/>
   <tile/>
   <tile/>
   <tile/>
   <tile/>
   <tile/>
   <tile/>
   <tile/>
   <tile/>
   <tile/>
   <tile/>
   <tile/>
   <tile/>
   <tile/>
   <tile/>
   <tile/>
   <tile/>
   <tile/>
   <tile/>
   <tile/>
   <tile/>
   <tile/>
   <tile/>
   <tile/>
   <tile/>
   <tile/>
   <tile/>
   <tile/>
   <tile/>
   <tile/>
   <tile/>
   <tile/>
   <tile/>
   <tile/>
   <tile/>
   <tile/>
  </data>
 </layer>
 <objectgroup id="7" name="spawn points">
  <object id="1" name="player" x="769.333" y="433.333">
   <point/>
  </object>
 </objectgroup>
</map>
